build/category/PinOutline.svg

<svg xmlns="http://www.w3.org/2000/svg" fill="none" viewBox="0 0 24 24" focusable="false"><path d="M0 0H24V24H0z"/><path fill="#74767B" fill-rule="evenodd" d="M20.3118 11.7544L18.2018 11.7499L13.3768 16.5749L13.3897 18.6765C13.2626 19.755 11.9473 20.2115 11.1794 19.4435L8.33758 16.6018L3.83472 21.1046C3.58088 21.3585 3.16932 21.3585 2.91548 21.1046C2.66164 20.8508 2.66164 20.4392 2.91548 20.1854L7.41834 15.6825L4.55627 12.8204C3.78833 12.0525 4.24477 10.7373 5.32334 10.6101L7.42489 10.623L12.2499 5.79801L12.2455 3.68801C12.3726 2.60945 13.6878 2.15301 14.4558 2.92095L21.0789 9.54405C21.8468 10.312 21.3904 11.6272 20.3118 11.7544ZM12.0887 18.5144L5.48547 11.9112L7.96006 11.9263L7.96272 11.9237L12.0761 16.0371L12.0735 16.0398L12.0887 18.5144ZM12.6242 7.26216L8.88196 11.0044L12.9954 15.1179L16.7377 11.3756L12.6242 7.26216ZM13.5435 6.34292L13.551 6.33536L13.5458 3.84946L20.1504 10.454L17.6645 10.4488L17.6569 10.4564L13.5435 6.34292Z"/></svg>

<svg xmlns="http://www.w3.org/2000/svg" fill="none" viewBox="0 0 24 24" focusable="false"><path fill="#74767B" fill-rule="evenodd" d="m20.31 11.75-2.11-.01-4.83 4.83.01 2.1c-.12 1.08-1.44 1.54-2.21.77L8.33 16.6l-4.5 4.5c-.25.25-.67.25-.92 0a.66.66 0 0 1 0-.92l4.5-4.5-2.86-2.86c-.77-.77-.31-2.09.77-2.21l2.1.01 4.83-4.83-.01-2.11c.13-1.08 1.44-1.53 2.21-.76l6.62 6.62c.77.77.32 2.08-.76 2.21m-8.23 6.76-6.6-6.6 2.47.01h.01l4.11 4.11zm.54-11.25L8.88 11l4.11 4.11 3.74-3.74zm.92-.92.01-.01-.01-2.49 6.61 6.61-2.49-.01-.01.01z"/></svg>
